assets/svg/phone.svg

<svg fill="none" height="24" viewBox="0 0 24 24" width="24" xmlns="http://www.w3.org/2000/svg"><g fill="#00343d"><path d="m23.9911 19.7531c-.0432-.3955-.2409-.7488-.5568-.9935l-4.6254-3.5749c-.7863-.6067-1.8471-.6787-2.7054-.1824l-.8506.4915c-.5184.2986-1.1597.2592-1.634-.1075-.6873-.529-1.7136-1.366-2.6957-2.349-.97446-.9754-1.79628-1.9823-2.31373-2.6553-.36288-.47128-.4032-1.11158-.10369-1.63091l.49152-.85246c.49635-.8601.42528-1.92279-.18147-2.70611l-3.57611-4.625072c-.24376-.315794-.59512-.5135105-.99161-.5576664-.3965-.0460777-.78338.0719993-1.08964.3254034-.7853.647947-1.79431 1.494645-2.14468 1.845965-.710441.71039-1.01379 1.64061-1.01379 3.11318 0 1.71734 3.15275 8.10487 6.94966 11.74307 3.65094 3.811 10.03904 6.9626 11.75844 6.9626 1.4717 0 2.402-.3033 3.1105-1.0137.3792-.3782 1.32-1.5071 1.8461-2.1445.2544-.3073.3696-.6932.3264-1.0887z"/><g clip-rule="evenodd" fill-rule="evenodd"><path d="m16.3305 1.97177c2.6535.96877 4.7294 3.0447 5.6972 5.69827.0742.20357.2667.32996.4713.32996.0571 0 .1143-.01004.1705-.0311.2608-.09524.3951-.38211.2999-.64282-1.0681-2.93138-3.3626-5.22689-6.2959-6.29595-.2568-.094263-.5476.04011-.6429.29887-.0953.25968.0392.54748.2999.64277z"/><path d="m15.2883 5.84564c1.3188.47664 2.3894 1.54842 2.8651 2.86681.0653.17777.2317.28755.4103.28755.0496 0 .0993-.00783.148-.02527.2266-.08191.3441-.33112.2622-.5577-.5636-1.55888-1.8302-2.82673-3.3895-3.39051-.2248-.0828-.4756.03485-.5584.26143-.0818.22657.0358.47578.2623.55769z"/><path d="m14.3021 8.88217c.3807.13633.6788.43441.8151.81611.0673.18629.2418.30172.4281.30172.05 0 .1018-.00817.1526-.02725.2372-.08454.3599-.34446.2754-.58072-.2281-.63891-.7261-1.13691-1.3659-1.36506-.2354-.08543-.4953.0391-.5807.27448-.0845.23626.0382.49618.2754.58072z"/></g></g></svg>

<svg width="24" height="24" viewBox="0 0 24 24" fill="none" xmlns="http://www.w3.org/2000/svg">
<path d="M23.9911 19.7531C23.9479 19.3576 23.7502 19.0043 23.4343 18.7596L18.8089 15.1847C18.0226 14.578 16.9618 14.506 16.1035 15.0023L15.2529 15.4938C14.7345 15.7924 14.0932 15.753 13.6189 15.3863C12.9316 14.8573 11.9053 14.0203 10.9232 13.0373C9.94874 12.0619 9.12692 11.055 8.60947 10.382C8.24659 9.91072 8.20627 9.27042 8.50578 8.75109L8.9973 7.89863C9.49365 7.03853 9.42258 5.97584 8.81583 5.19252L5.23972 0.567448C4.99596 0.251654 4.6446 0.0539375 4.24811 0.0097816C3.85161 -0.0362961 3.46473 0.0817809 3.15847 0.335185C2.37317 0.983132 1.36416 1.82983 1.01379 2.18115C0.303349 2.89154 0 3.82176 0 5.29433C0 7.01167 3.15275 13.3992 6.94966 17.0374C10.6006 20.8484 16.9887 24 18.7081 24C20.1798 24 21.1101 23.6967 21.8186 22.9863C22.1978 22.6081 23.1386 21.4792 23.6647 20.8418C23.9191 20.5345 24.0343 20.1486 23.9911 19.7531Z" fill="#00343D"/>
<path fill-rule="evenodd" clip-rule="evenodd" d="M16.3305 1.97177C18.984 2.94054 21.0599 5.01647 22.0277 7.67004C22.1019 7.87361 22.2944 8 22.499 8C22.5561 8 22.6133 7.98996 22.6695 7.9689C22.9303 7.87366 23.0646 7.58679 22.9694 7.32608C21.9013 4.3947 19.6068 2.09919 16.6735 1.03013C16.4167 0.935867 16.1259 1.07024 16.0306 1.329C15.9353 1.58868 16.0698 1.87648 16.3305 1.97177Z" fill="#00343D"/>
<path fill-rule="evenodd" clip-rule="evenodd" d="M15.2883 5.84564C16.6071 6.32228 17.6777 7.39406 18.1534 8.71245C18.2187 8.89022 18.3851 9 18.5637 9C18.6133 9 18.663 8.99217 18.7117 8.97473C18.9383 8.89282 19.0558 8.64361 18.9739 8.41703C18.4103 6.85815 17.1437 5.5903 15.5844 5.02652C15.3596 4.94372 15.1088 5.06137 15.026 5.28795C14.9442 5.51452 15.0618 5.76373 15.2883 5.84564Z" fill="#00343D"/>
<path fill-rule="evenodd" clip-rule="evenodd" d="M14.3021 8.88217C14.6828 9.0185 14.9809 9.31658 15.1172 9.69828C15.1845 9.88457 15.359 10 15.5453 10C15.5953 10 15.6471 9.99183 15.6979 9.97275C15.9351 9.88821 16.0578 9.62829 15.9733 9.39203C15.7452 8.75312 15.2472 8.25512 14.6074 8.02697C14.372 7.94154 14.1121 8.06607 14.0267 8.30145C13.9422 8.53771 14.0649 8.79763 14.3021 8.88217Z" fill="#00343D"/>
</svg>
